src/assets/google.svg

<svg width="16" height="16" viewBox="0 0 16 16" fill="none" xmlns="http://www.w3.org/2000/svg">
<g clip-path="url(#clip0_1_2217)">
<path d="M3.54594 9.66905L2.989 11.7482L0.953406 11.7912C0.345063 10.6629 0 9.37192 0 8.00005C0 6.67345 0.322625 5.42245 0.8945 4.32092H0.894938L2.70719 4.65317L3.50106 6.45455C3.33491 6.93895 3.24434 7.45895 3.24434 8.00005C3.24441 8.5873 3.35078 9.14995 3.54594 9.66905Z" fill="#FBBB00"/>
<path d="M15.8602 6.50562C15.9521 6.98955 16 7.48933 16 8.00012C16 8.57287 15.9398 9.13155 15.8251 9.67046C15.4357 11.5043 14.4181 13.1056 13.0084 14.2388L13.008 14.2384L10.7253 14.1219L10.4023 12.1052C11.3377 11.5566 12.0687 10.6981 12.4537 9.67046H8.1759V6.50562H12.5161H15.8602Z" fill="#518EF8"/>
<path d="M13.0081 14.2382L13.0085 14.2386C11.6375 15.3406 9.89596 15.9999 8.00015 15.9999C4.95355 15.9999 2.30477 14.2971 0.953552 11.7911L3.54608 9.66895C4.22168 11.472 5.96102 12.7555 8.00015 12.7555C8.87662 12.7555 9.69774 12.5186 10.4023 12.105L13.0081 14.2382Z" fill="#28B446"/>
<path d="M13.1064 1.84175L10.5148 3.9635C9.78553 3.50769 8.92353 3.24438 8.00003 3.24438C5.91475 3.24438 4.14288 4.58678 3.50113 6.4545L0.894969 4.32088H0.894531C2.22597 1.75384 4.90816 0 8.00003 0C9.94112 0 11.7209 0.691438 13.1064 1.84175Z" fill="#F14336"/>
</g>
<defs>
<clipPath id="clip0_1_2217">
<rect width="16" height="16" fill="white"/>
</clipPath>
</defs>
</svg>

<svg xmlns="http://www.w3.org/2000/svg" width="16" height="16" fill="none"><g clip-path="url(#a)"><path fill="#FBBB00" d="m3.546 9.67-.557 2.078-2.036.043A7.964 7.964 0 0 1 0 8a7.96 7.96 0 0 1 .894-3.68l1.813.333.794 1.802a4.756 4.756 0 0 0 .045 3.214Z"/><path fill="#518EF8" d="M15.86 6.506a8.006 8.006 0 0 1-.035 3.164 7.998 7.998 0 0 1-2.817 4.569l-2.283-.117-.323-2.017a4.768 4.768 0 0 0 2.052-2.435H8.176V6.506H15.86Z"/><path fill="#28B446" d="M13.008 14.238A7.966 7.966 0 0 1 8 16 7.999 7.999 0 0 1 .954 11.79L3.546 9.67a4.757 4.757 0 0 0 6.856 2.436l2.606 2.133Z"/><path fill="#F14336" d="m13.106 1.842-2.591 2.121A4.758 4.758 0 0 0 3.5 6.454L.895 4.322A7.998 7.998 0 0 1 8 0c1.941 0 3.72.691 5.106 1.842Z"/></g><defs><clipPath id="a"><path fill="#fff" d="M0 0h16v16H0z"/></clipPath></defs></svg>
